resources/svg/major-fulfillment-fulfilled.svg

<svg xmlns="http://www.w3.org/2000/svg" viewBox="0 0 20 20" fill="currentColor"><path fill-rule="evenodd" d="M11 4H19L17.1547 1.42858C16.9634 1.16232 16.6093 0.998786 16.2267 1.00001H11V4ZM9 1.00001H3.77333C3.39074 0.998786 3.03663 1.16232 2.84533 1.42858L1 4H9V1.00001ZM1 6V16.5C1 17.3284 1.67156 18 2.49997 18L8.5 18C9.5 18 10 17 10 17C10.0005 16.4658 10.0032 15.9327 10.0097 15.5C10.0097 11.9159 12.9234 9 16.5048 9H18C18 9 19 9 19 8V6H1ZM19.9983 12.7533C20.0099 12.948 19.9622 13.1412 19.8641 13.2973L16.1262 17.7568C15.8544 18.0811 15.4466 18.0811 15.1748 17.7568L13.1359 15.3243C13.0378 15.1682 12.9901 14.975 13.0017 14.7804C13.0133 14.5857 13.0834 14.4025 13.1991 14.2645C13.3147 14.1265 13.4683 14.0429 13.6314 14.0291C13.7946 14.0152 13.9565 14.0721 14.0874 14.1892L15.6505 16.0541L18.9126 12.1622C19.0435 12.0451 19.2054 11.9882 19.3686 12.002C19.5317 12.0159 19.6853 12.0995 19.8009 12.2375C19.9166 12.3755 19.9867 12.5587 19.9983 12.7533Z" fill="#5C5F62"/></svg>

<svg xmlns="http://www.w3.org/2000/svg" viewBox="0 0 20 20" fill="currentColor"><path fill-rule="evenodd" d="M11 4h8l-1.845-2.571c-.192-.267-.546-.43-.928-.429h-5.227v3Zm-2-3h-5.227c-.382-.001-.736.162-.928.429l-1.845 2.571h8v-3Zm-8 5v10.5a1.5 1.5 0 0 0 1.5 1.5h6c1 0 1.5-1 1.5-1 0-.534.003-1.067.01-1.5 0-3.584 2.913-6.5 6.495-6.5h1.495s1 0 1-1v-2h-18Zm18.998 6.753a.926.926 0 0 1-.134.544l-3.738 4.46c-.272.324-.68.324-.951 0l-2.04-2.433a.925.925 0 0 1-.133-.544.887.887 0 0 1 .197-.515.637.637 0 0 1 .432-.236.605.605 0 0 1 .456.16l1.563 1.865 3.263-3.892a.605.605 0 0 1 .456-.16.638.638 0 0 1 .432.236.887.887 0 0 1 .197.515Z"/></svg>
